!!!COM: Scriabin, Alexander
!!!OTL@@FR: Mazurka en mi bémol mineur
!!!OTL@@EN: Mazurka in Eb Minor
!!!OPR@@FR: 10 Mazurkas
!!!OPR@@EN: 10 Mazurkas
!!!OPS: 3
!!!ONM: 10
!!!ODT: 1888–1889
!!!AGN: Mazurka
**kern	**kern	**dynam
*staff2	*staff1	*staff1/2
*Ipiano	*Ipiano	*
*clefF4	*clefG2	*
*k[b-e-a-d-g-c-]	*k[b-e-a-d-g-c-]	*
*e-:	*e-:	*
*M3/4	*M3/4	*
=1	=1	=1
*^	*	*
4rEE	2.c-	8r	.
.	.	8ee-	.
4A- 4f	.	12ee-L	.
.	.	12ff	.
.	.	12ee-J	.
4A-- 4f	.	8r	.
.	.	8cc-	.
=2	=2	=2	=2
4rEE	2.c-	8ee-L	.
.	.	16r	.
.	.	16b-Jk	.
4G- 4e-	.	4ee-	.
4F 4e-	.	4a-	.
=3	=3	=3	=3
4rEE	2.c-	8r	.
.	.	8cc-	.
4F 4dn	.	4.b-	.
4F 4d	.	.	.
.	.	8a-	.
=4	=4	=4	=4
4rEE	2.c-	8r	.
.	.	8cc-	.
4F-X 4dn	.	4.b-	.
4F- 4d	.	.	.
.	.	8a-	.
=5	=5	=5	=5
4rEE	2.c-	8r	.
.	.	8a-	.
4E- 4e-	.	12a-L	.
.	.	12b-	.
.	.	12a-J	.
4D- 4f-X	.	8r	.
.	.	8f-X	.
=6	=6	=6	=6
4rEE	2.c-	8a-L	.
.	.	16r	.
.	.	16f-XJk	.
4C- 4A-	.	4a-	.
4C- 4A-	.	4e-	.
=7	=7	=7	=7
*	*	*^	*
4rEE	2.c-	4rc	8raa	.
.	.	.	8cc-	.
4BB- 4Fn	.	4dn	4.b-	.
4BB- 4F	.	4d	.	.
.	.	.	8a-	.
*	*	*v	*v	*
*clefG2	*	*	*
=8	=8	=8	=8
4c- 4a- 4ddn	2.ryy	8r	.
.	.	8aa-	.
4r	.	4.gg-	.
4r	.	.	.
.	.	8ff	.
*v	*v	*	*
*clefF4	*	*
=9	=9	=9
*	*^	*
4EE-	4rc	8raa	.
.	.	8ff-X	.
4E- 4d- 4f-X	4gn	12ff-L	.
.	.	12gg-X	.
.	.	12ff-J	.
4E- 4d- 4f-	4g	8raa	.
.	.	8b-	.
*	*v	*v	*
=10	=10	=10
*^	*	*
4rEE	4AA-	8dd-L	.
.	.	16r	.
.	.	16b--Jk	.
2F-X 2f-X	4An	4dd-	.
.	4B-	4a-X	.
*v	*v	*	*
=11	=11	=11
*	*^	*
4EE-	2.g	8gnL	.
.	.	8ff-X	.
4E- 4d- 4f-X	.	8ee-	.
.	.	8ee--	.
4r	.	8dd-	.
.	.	8b-XJ	.
*	*v	*v	*
=12	=12	=12
*^	*	*
4rEE	4AA-	8cc-L	.
.	.	8dd-	.
2c-	4Dn 4f-X	8cc-	.
.	.	8b-	.
.	4E- 4e-	8a-	.
.	.	8e-J	.
*v	*v	*	*
=13	=13	=13
*	*^	*
4BBB-	4rc	8dnL	.
.	.	8cc-	.
2BB- 2A-	2d	8b-	.
.	.	8a-	.
.	.	8g-	.
.	.	8fnJ	.
*	*v	*v	*
=14	=14	=14
4C- 4G-	8e-L	.
.	8g-J	.
4An 4e-	8an	.
.	4ff	.
4r	.	.
.	8ee-	.
=15	=15	=15
4BB- 4G- 4e-	8ddnL	.
.	8dd-X	.
4G- 4e- 4g-	8ccn	.
.	8cc-X	.
4r	8b-	.
.	8g-J	.
=16	=16	=16
4BB- 4A- 4dn	8g-L	.
.	8fJ	.
4r	8A-L	.
.	8Gn	.
4r	8A-	.
.	8B-J	.
=17	=17	=17
*^	*	*
4rEE	2.c-	8r	.
.	.	8ee-	.
4A- 4f	.	12ee-L	.
.	.	12ff	.
.	.	12ee-J	.
4A-- 4f	.	8r	.
.	.	8cc-	.
=18	=18	=18	=18
4rEE	2.c-	8ee-L	.
.	.	16r	.
.	.	16b-Jk	.
4G- 4e-	.	4ee-	.
4F 4e-	.	4a-	.
=19	=19	=19	=19
4rEE	2.c-	8r	.
.	.	8cc-	.
4F 4dn	.	4.b-	.
4F 4d	.	.	.
.	.	8a-	.
=20	=20	=20	=20
4rEE	2.c-	8r	.
.	.	8cc-	.
4F-X 4dn	.	4.b-	.
4F- 4d	.	.	.
.	.	8a-	.
=21	=21	=21	=21
4rEE	2.c-	8r	.
.	.	8a-	.
4E- 4e-	.	12a-L	.
.	.	12b-	.
.	.	12a-J	.
4D- 4f-X	.	8r	.
.	.	8f-X	.
=22	=22	=22	=22
4rEE	2.c-	8a-L	.
.	.	16r	.
.	.	16f-XJk	.
4C- 4A-	.	4a-	.
4C- 4A-	.	4e-	.
=23	=23	=23	=23
4rEE	2.c-	8r	.
.	.	8cc-	.
4D- 4fn	.	4.b-	.
4D- 4f	.	.	.
.	.	8a-	.
*clefG2	*	*	*
=24	=24	=24	=24
4d- 4cc- 4ff	2.ryy	8r	.
.	.	8ccc-	.
4r	.	4.bb-	.
4r	.	.	.
.	.	8aa-	.
*v	*v	*	*
*clefF4	*	*
=25	=25	=25
*	*^	*
4GG-	4rc	8rb	.
.	.	8aa--	.
4G- 4f-X 4a--	4b-	12aa--L	.
.	.	12bb--	.
.	.	12aa--J	.
4G- 4f- 4a--	4b-	8raa	.
.	.	8dd-	.
*	*v	*v	*
=26	=26	=26
*^	*	*
4rEE	4C-	8ff-XL	.
.	.	16r	.
.	.	16dd--Jk	.
2A-- 2a--	4cn	4ff-	.
.	4d-	4cc-X	.
*v	*v	*	*
=27	=27	=27
*	*^	*
4GG-	4rc	8b-L	.
.	.	8aa--	.
4G- 4f-X 4a--	4b-	8gg-	.
.	.	8gg--	.
4r	4rc	8ff-X	.
.	.	8dd-XJ	.
*	*v	*v	*
=28	=28	=28
*^	*	*
4C-	4rc	8ee-L	.
.	.	8dd-	.
[4G-	[4e-	8cc-	.
.	.	8b-	.
8G-L]	4A-X 4e-]	8a-X	.
8FnJ	.	8e-J	.
*v	*v	*	*
=29	=29	=29
*	*^	*
4BBB-	4rc	8dnL	.
.	.	8cc-	.
2BB- 2A-	2d	8b-	.
.	.	8a-	.
.	.	8g-	.
.	.	8fJ	.
*	*v	*v	*
=30	=30	=30
4C- 4G-	8e-L	.
.	8g-J	.
4An 4e-	8an	.
.	4ff	.
4r	.	.
.	8ee-	.
=31	=31	=31
4BB- 4G- 4e-	8ddnL	.
.	8dd-X	.
4G- 4e- 4g-	8ccn	.
.	8cc-X	.
4r	8b-	.
.	8g-J	.
=32	=32	=32
*	*^	*
[4BB-	4A- 4dn	8g-L	.
.	.	8fJ	.
2EE- 2BB-]	4rc	2G- 2e-	.
.	4rc	.	.
=33	=33	=33	=33
2GG-	4rc	8raa	.
.	.	8g-	.
.	4B-	12g-L	.
.	.	12a-	.
.	.	12g-J	.
4D-	4rc	8raa	.
.	.	8g-	.
=34	=34	=34	=34
4E--	4c-	8cc-L	.
.	.	16r	.
.	.	[16fJk	.
4.B-	4c-	4f] 4cc-	.
.	4rc	4f	.
8A-	.	.	.
*	*v	*v	*
=35	=35	=35
8r	4c- 4e- 4g-	.
8A-	.	.
12A-L	4c- 4e- 4a-	.
12B-	.	.
12A-J	.	.
8r	4c- 4e- 4b-	.
8G-	.	.
=36	=36	=36
8c-L	4c- 4e- 4b- 4dd-	.
16r	.	.
16FJk	.	.
4c-	4c- 4e- 4a- 4cc-	.
4r	4c- 4e- 4b-	.
=37	=37	=37
*^	*	*
8BB-L	2.ryy	4c- 4e- 4b-	.
8G-J	.	.	.
4F	.	4c- 4e- 4a-	.
4BB-	.	4c- 4dn 4b-	.
=38	=38	=38	=38
4.E-	2.ryy	4A- 4c- 4a-	.
.	.	4G- 4c- 4g-	.
8EE-	.	.	.
8DDnL	.	4G- 4c-	.
8EE-J	.	.	.
=39	=39	=39	=39
2FF-X	4rc	4E- 4A- 4e-	.
.	4rc	4D- 4A- 4d-X	.
4FFn	[4D-X	4A- 4c- 4d- 4a-	.
=40	=40	=40	=40
2.GG-	8D-L]	4A- 4d- 4a-	.
.	8E-J	.	.
.	[4F-X	4G- 4B- 4g-	.
.	4F-] 4G- 4d-	4f-X 4b- 4gg-	.
*v	*v	*	*
=41	=41	=41
*	*^	*
2C-	4rc	8raa	.
.	.	8cc-	.
.	4e-	12cc-L	.
.	.	12dd-	.
.	.	12cc-J	.
4G-	4rc	8raa	.
.	.	8cc-	.
=42	=42	=42	=42
4A--	4f-X	8ff-XL	.
.	.	16r	.
.	.	[16b-Jk	.
4.e-	4f-	4b-] 4ff-	.
.	4rc	4b-	.
8d-	.	.	.
*	*v	*v	*
=43	=43	=43
8r	4f-X 4a- 4cc-	.
8d-	.	.
12d-L	4f- 4a- 4dd-	.
12e-	.	.
12d-J	.	.
8r	4f- 4a- 4ee-	.
8c-	.	.
=44	=44	=44
8f-XL	4f-X 4a- 4ee- 4gg-	.
16r	.	.
16B-Jk	.	.
4f-	4f- 4a- 4dd- 4ff-X	.
4r	4f- 4a- 4cc- 4ee-	.
=45	=45	=45
8E-L	4f-X 4a- 4ee-	.
8c-J	.	.
8B-	4f- 4a- 4dd-	.
8r	.	.
8r	4f- 4gn 4ee-	.
8E-	.	.
=46	=46	=46
4.A-	4d- 4f-X 4dd-	.
.	4c- 4f- 4cc-	.
8A-	.	.
8B-L	4c- 4f- 4a-	.
8A-J	.	.
=47	=47	=47
*^	*^	*
8rEE	2.A-	4rc	4g-	.
8BB-	.	.	.	.
12BB-L	.	2c- 2dn	4g-	.
12C-	.	.	.	.
12BB-J	.	.	.	.
4rEE	.	.	4cc-	.
=48	=48	=48	=48	=48
8rEE	2.G-	2.c- 2.e-	4cc-	.
8BB-	.	.	.	.
12BB-L	.	.	8g-L	.
12C-	.	.	.	.
.	.	.	8a-J	.
12BB-J	.	.	.	.
4rEE	.	.	4b-	.
=49	=49	=49	=49	=49
8rEE	2.A-	2.c- 2.dn	4g-	.
8BB-	.	.	.	.
12BB-L	.	.	4en	.
12C-	.	.	.	.
12BB-J	.	.	.	.
4rEE	.	.	4f	.
=50	=50	=50	=50	=50
8rEE	2.G-	2.c- 2.e-X	4g-	.
8BB-	.	.	.	.
12BB-L	.	.	4cc-	.
12C-	.	.	.	.
12BB-J	.	.	.	.
4rEE	.	.	4b-	.
=51	=51	=51	=51	=51
4rEE	4BBB-	4rc	8raa	.
.	.	.	8a-	.
2BB-	4F	2c- 2dn	12a-L	.
.	.	.	12b-	.
.	.	.	12a-J	.
.	8G-L	.	8g-L	.
.	8A-J	.	8fJ	.
=52	=52	=52	=52	=52
2BB-	8.A-L	2c-	8.fL	.
.	16G-Jk	.	16e-Jk	.
.	4F	.	4dn	.
4rEE	4rc	4rc	4cc- 4ccc-	.
=53	=53	=53	=53	=53
4rEE	4BBB-	4rc	8raa	.
.	.	.	8a-	.
2BB-	4F	2c- 2dn	12a-L	.
.	.	.	12b-	.
.	.	.	12a-J	.
.	8G-L	.	8g-L	.
.	8A-J	.	8fJ	.
=54	=54	=54	=54	=54
2BB-	8.A-L	2c-	8.fL	.
.	16G-Jk	.	16e-Jk	.
.	4F	.	4dn	.
4rEE	4rc	4rc	4cc- 4ccc-	.
=55	=55	=55	=55	=55
4rEE	4BBB-	4rc	8raa	.
.	.	.	8dd-	.
2BB- 2F-X	4B-	2f-X 2gn	12dd-L	.
.	.	.	12ee-	.
.	.	.	12dd-J	.
.	8c-L	.	8cc-L	.
.	8d-J	.	8b-J	.
=56	=56	=56	=56	=56
2BB- 2F-X	8.d-L	2f-X	8.b-L	.
.	16c-Jk	.	16a-Jk	.
.	4B-	.	4gn	.
4rEE	4BBBB- 4BBB-	4rc	4raa	.
*v	*v	*	*	*
=57	=57	=57	=57
4En 4c- 4en	4aa-	8ff-XL 8fff-X	.
.	.	8ee-J 8eee-	.
4Fn 4c- 4fn	4aa-	4ddn 4dddn	.
4BBBB- 4BBB-	4rc	4raa	.
=58	=58	=58	=58
4En 4c-	4a-	8f-XL 8ff-X	.
.	.	8e-J 8ee-	.
4F 4c-	4a-	4dn 4ddn	.
4BBBB- 4BBB-	4rc	4raa	.
=59	=59	=59	=59
4EEn 4C-	4A-	8F-XL 8f-X	.
.	.	8E-J 8e-	.
4FF 4C-	4A-	4Dn 4dn	.
4BBBB- 4BBB-	4rc	4raa	.
*	*v	*v	*
=60	=60	=60
2.c-	2.r	.
=61	=61	=61
2.c-	2.r	.
=62	=62	=62
2.c-	2.r	.
=63	=63	=63
*^	*	*
4rEE	2.c-	8r	.
.	.	8ee-	.
4A- 4f	.	12ee-L	.
.	.	12ff	.
.	.	12ee-J	.
4A-- 4f	.	8r	.
.	.	8cc-	.
=64	=64	=64	=64
4rEE	2.c-	8ee-L	.
.	.	16r	.
.	.	16b-Jk	.
4G- 4e-	.	4ee-	.
4F 4e-	.	4a-	.
=65	=65	=65	=65
4rEE	2.c-	8r	.
.	.	8cc-	.
4F 4dn	.	4.b-	.
4F 4d	.	.	.
.	.	8a-	.
=66	=66	=66	=66
4rEE	2.c-	8r	.
.	.	8cc-	.
4F-X 4dn	.	4.b-	.
4F- 4d	.	.	.
.	.	8a-	.
=67	=67	=67	=67
4rEE	2.c-	8r	.
.	.	8a-	.
4E- 4e-	.	12a-L	.
.	.	12b-	.
.	.	12a-J	.
4D- 4f-X	.	8r	.
.	.	8f-X	.
=68	=68	=68	=68
4rEE	2.c-	8a-L	.
.	.	16r	.
.	.	16f-XJk	.
4C- 4A-	.	4a-	.
4C- 4A-	.	4e-	.
=69	=69	=69	=69
*	*	*^	*
4rEE	2.c-	4rc	8raa	.
.	.	.	8cc-	.
4BB- 4Fn	.	4dn	4.b-	.
4BB- 4F	.	4d	.	.
.	.	.	8a-	.
*	*	*v	*v	*
*clefG2	*	*	*
=70	=70	=70	=70
4c- 4a- 4ddn	2.ryy	8r	.
.	.	8aa-	.
4r	.	4.gg-	.
4r	.	.	.
.	.	8ff	.
*v	*v	*	*
*clefF4	*	*
=71	=71	=71
*	*^	*
4EE-	4rc	8raa	.
.	.	8ff-X	.
4E- 4d-X 4f-X	4gn	12ff-L	.
.	.	12gg-X	.
.	.	12ff-J	.
4E- 4d- 4f-	4g	8raa	.
.	.	8b-	.
*	*v	*v	*
=72	=72	=72
*^	*	*
4rEE	4AA-	8dd-L	.
.	.	16r	.
.	.	16b--Jk	.
2F-X 2f-X	4An	4dd-	.
.	4B-	4a-X	.
*v	*v	*	*
=73	=73	=73
*	*^	*
4EE-	2.g	8gnL	.
.	.	8ff-X	.
4E- 4d- 4f-X	.	8ee-	.
.	.	8ee--	.
4r	.	8dd-	.
.	.	8b-XJ	.
*	*v	*v	*
=74	=74	=74
*^	*	*
4rEE	4AA-	8cc-L	.
.	.	8dd-	.
2c-	4Dn 4f-X	8cc-	.
.	.	8b-	.
.	4E- 4e-	8a-	.
.	.	8e-J	.
*v	*v	*	*
=75	=75	=75
*	*^	*
4BBB-	4rc	8dnL	.
.	.	8cc-	.
2BB- 2A-	2d	8b-	.
.	.	8a-	.
.	.	8g-	.
.	.	8fnJ	.
*	*v	*v	*
=76	=76	=76
4C- 4G-	8e-L	.
.	8g-J	.
4An 4e-	8an	.
.	4ff	.
4r	.	.
.	8ee-	.
=77	=77	=77
4BB- 4G- 4e-	8ddnL	.
.	8dd-X	.
4G- 4e- 4g-	8ccn	.
.	8cc-X	.
4r	8b-	.
.	8g-J	.
=78	=78	=78
*	*^	*
[4BB-	4A- 4dn	8g-L	.
.	.	8fJ	.
2EE- 2BB-]	4rc	2G- 2e-	.
.	4rc	.	.
*	*v	*v	*
*	*clefF4	*
=79||	=79||	=79||
*k[f#c#g#d#a#]	*k[f#c#g#d#a#]	*
4BBB 4FF#	4D# 4B 4d#	.
2FFF# 2FF#	2C##X 2B 2c##X	.
=80	=80	=80
4BBB 4FF#	4D# 4B 4d#	.
*	*clefG2	*
2FF# 2D#	2A# 2f#	.
=81	=81	=81
*^	*^	*
*	*^	*	*	*
4r	[2.GG#	2.D#	[2.B	4B	.
4r	.	.	.	8c#L	.
.	.	.	.	8d#J	.
[4CC#\	.	.	.	8.eL	.
.	.	.	.	16g#Jk	.
=82	=82	=82	=82	=82	=82
4CC#/]	4GG#]	8C#L	4B]	4g#	.
.	.	8D#J	.	.	.
2FF#/	4rEE	2E	4rc	4A# 4f#	.
.	4rEE	.	4rc	4c#	.
*	*v	*v	*	*	*
*v	*v	*	*	*
*	*v	*v	*
*	*clefF4	*
=83	=83	=83
4CC# 4GG#	4E 4c# 4e	.
2GGG# 2GG#	2D# 2B#X 2d#	.
=84	=84	=84
4CC# 4GG#	4E 4c# 4e	.
*	*clefG2	*
2GG# 2E	2B#X 2g#	.
=85	=85	=85
*	*^	*
2C# 2E	2c#	4c#	.
.	.	8d#L	.
.	.	8eJ	.
[4FF# [4E	4Bn	8.g#L	.
.	.	16f#Jk	.
*	*v	*v	*
=86	=86	=86
4FF#] 4E]	4A# 4f#	.
4BB 4D#	4B	.
4FF#	4F# 4A# 4c#	.
*	*clefF4	*
=87	=87	=87
4BBB 4FF#	4D# 4B 4d#	.
2FFF# 2FF#	2C##X 2B 2c##X	.
=88	=88	=88
4BBB 4FF#	4D# 4B 4d#	.
*	*clefG2	*
2FF# 2D#	2A# 2f#	.
=89	=89	=89
*^	*^	*
*	*^	*	*	*
4r	[2.GG#	2.D#	[2.B	4B	.
4r	.	.	.	8c#L	.
.	.	.	.	8d#J	.
[4CC#\	.	.	.	8.eL	.
.	.	.	.	16g#Jk	.
=90	=90	=90	=90	=90	=90
4CC#/]	4GG#]	8C#L	4B]	4g#	.
.	.	8D#J	.	.	.
2FF#/	4rEE	2E	4rc	4A# 4f#	.
.	4rEE	.	4rc	4c#	.
*	*v	*v	*	*	*
*v	*v	*	*	*
*	*v	*v	*
*	*clefF4	*
=91	=91	=91
4CC# 4GG#	4E 4c# 4e	.
2GGG# 2GG#	2D# 2B#X 2d#	.
=92	=92	=92
4CC# 4GG#	4E 4c# 4e	.
*	*clefG2	*
2GG# 2E	2B#X 2g#	.
=93	=93	=93
*	*^	*
2C# 2E	2c#	4c#	.
.	.	8d#L	.
.	.	8eJ	.
[4FF# [4E	4Bn	8.g#L	.
.	.	16f#Jk	.
*	*v	*v	*
=94	=94	=94
4FF#] 4E]	4A# 4f#	.
4BB 4D#	4B	.
4AA#	4r	.
=95	=95	=95
4GGG# 4GG#	4B 4g# 4b	.
.	[8qB/ 8qa#	.
2DD# 2D#	2B] 2g# 2b	.
=96	=96	=96
*	*^	*
4DD##X 4D##X	8dd#L	4.dd#	.
.	8g#	.	.
4EE#X 4E#X	8d#	.	.
.	8cc##	4.cc##X	.
4AA# 4A#	8g#	.	.
.	8c##XJ	.	.
*	*v	*v	*
=97	=97	=97
4DD#X 4D#X	4f# 4dd# 4ff#	.
.	[8qf#/ 8qee#X	.
2AA# 2A#	2f#] 2dd# 2ff#	.
=98	=98	=98
*	*^	*
4AA##X 4A##X	8aa#XL	4.aa#	.
.	8dd#	.	.
4BB#X 4B#X	8a#	.	.
.	8gg##	4.gg##X	.
4E#X 4e#X	8dd#	.	.
.	8g##XJ	.	.
=99	=99	=99	=99
2.Fn 2.Bn 2.an	8aaL	4.aan	.
.	8dd#	.	.
.	8an	.	.
.	8bb	4.bb	.
.	8dd#	.	.
.	8aJ	.	.
=100	=100	=100	=100
2.E 2.B 2.g#	8gg#L	4.gg#	.
.	8ee	.	.
.	8g#	.	.
.	8gg#	4.gg#	.
.	8ee	.	.
.	8g#J	.	.
=101	=101	=101	=101
2.E#X	8ggL	4.ggn	.
.	8b	.	.
.	8dn	.	.
.	8gg	4.gg	.
.	8b	.	.
.	8dJ	.	.
=102	=102	=102	=102
2.F#	8ff#L	4.ff#	.
.	8a#	.	.
.	8c#	.	.
.	8f#	4.f#	.
.	8A#	.	.
.	8F#J	.	.
*	*v	*v	*
*	*clefF4	*
=103	=103	=103
4BBB 4FF#	4D# 4B 4d#	.
2FFF# 2FF#	2C##X 2B 2c##X	.
=104	=104	=104
4BBB 4FF#	4D# 4B 4d#	.
*	*clefG2	*
2FF# [2D#	2A# 2f#	.
=105	=105	=105
*^	*^	*
*	*^	*	*	*
4r	2.GG#	2.D#]	[2.B	4B	.
4r	.	.	.	8c#L	.
.	.	.	.	8d#J	.
4CC#\	.	.	.	8.eL	.
.	.	.	.	16g#Jk	.
=106	=106	=106	=106	=106	=106
4CC#/	4GG#	8C#L	4B]	4g#	.
.	.	8D#J	.	.	.
2FF#/	4rEE	2E	4rc	4A# 4f#	.
.	4rEE	.	4rc	4c#	.
*	*v	*v	*	*	*
*v	*v	*	*	*
*	*v	*v	*
*	*clefF4	*
=107	=107	=107
4CC# 4GG#	4E 4c# 4e	.
2GGG# 2GG#	2D# 2B#X 2d#	.
=108	=108	=108
4CC# 4GG#	4E 4c# 4e	.
*	*clefG2	*
2GG# 2E	2B#X 2g#	.
=109	=109	=109
*	*^	*
2C# 2E	2c#	4c#	.
.	.	8d#L	.
.	.	8eJ	.
4FF# 4E	4Bn	8.g#L	.
.	.	16f#Jk	.
*	*v	*v	*
=110	=110	=110
4FF# 4E	4A# 4f#	.
4BB 4D#	4B	.
4AA#	4r	.
=111	=111	=111
4GGG# 4GG#	4B 4g# 4b	.
.	[8qB/ 8qa#	.
2DD# 2D#	2B] 2g# 2b	.
=112	=112	=112
*	*^	*
4DD##X 4D##X	8dd#L	4.dd#	.
.	8g#	.	.
4EE#X 4E#X	8d#	.	.
.	8cc##	4.cc##X	.
4AA# 4A#	8g#	.	.
.	8c##XJ	.	.
*	*v	*v	*
=113	=113	=113
4DD#X 4D#X	4f# 4dd# 4ff#	.
.	[8qf#/ 8qee#X	.
2AA# 2A#	2f#] 2dd# 2ff#	.
=114	=114	=114
*	*^	*
4AA##X 4A##X	8aa#XL	4.aa#	.
.	8dd#	.	.
4BB#X 4B#X	8a#	.	.
.	8gg##	4.gg##X	.
4E#X 4e#X	8dd#	.	.
.	8g##XJ	.	.
=115	=115	=115	=115
2.Fn 2.Bn 2.an	8aaL	4.aan	.
.	8dd#	.	.
.	8an	.	.
.	8bb	4.bb	.
.	8dd#	.	.
.	8aJ	.	.
=116	=116	=116	=116
2.E 2.B 2.g#	8gg#L	4.gg#	.
.	8ee	.	.
.	8g#	.	.
.	8gg#	4.gg#	.
.	8ee	.	.
.	8g#J	.	.
=117	=117	=117	=117
2.E#X	8ggL	4.ggn	.
.	8b	.	.
.	8dn	.	.
.	8gg	4.gg	.
.	8b	.	.
.	8dJ	.	.
=118	=118	=118	=118
2.F#	8ff#L	4.ff#	.
.	8a#	.	.
.	8c#	.	.
.	8f#	4.f#	.
.	8A#	.	.
.	8F#J	.	.
*	*v	*v	*
*	*clefF4	*
=119	=119	=119
4BBB 4FF#	4D# 4B 4d#	.
2FFF# 2FF#	2C##X 2B 2c##X	.
=120	=120	=120
4BBB 4FF#	4D# 4B 4d#	.
*	*clefG2	*
2FF# [2D#	2A# 2f#	.
=121	=121	=121
*^	*^	*
*	*^	*	*	*
4r	2.GG#	2.D#]	[2.B	4B	.
4r	.	.	.	8c#L	.
.	.	.	.	8d#J	.
4CC#\	.	.	.	8.eL	.
.	.	.	.	16g#Jk	.
=122	=122	=122	=122	=122	=122
4CC#/	4GG#	8C#L	4B]	4g#	.
.	.	8D#J	.	.	.
2FF#/	4rEE	2E	4rc	4A# 4f#	.
.	4rEE	.	4rc	4c#	.
*	*v	*v	*	*	*
*v	*v	*	*	*
*	*v	*v	*
*	*clefF4	*
=123	=123	=123
4CC# 4GG#	4E 4c# 4e	.
2GGG# 2GG#	2D# 2B#X 2d#	.
=124	=124	=124
4CC# 4GG#	4E 4c# 4e	.
*	*clefG2	*
2GG# 2E	2B#X [2g#	.
=125	=125	=125
*^	*^	*
*	*	*	*^	*
2.AA#	4E	2.c#\	4rc	4g#]	.
.	[4D#X	.	2f#	8f#L	.
.	.	.	.	8g#J	.
.	4D#] 4c#	.	.	8.a#L	.
.	.	.	.	16cc#Jk	.
*	*	*	*v	*v	*
=126	=126	=126	=126	=126
4rEE	4rc	4rc	4cc#	.
2AA#	[2D#X	2B	4b	.
.	.	.	[4f#	.
=127	=127	=127	=127	=127
*	*	*	*^	*
2.GG#	4D#]	2.B\	4rc	4f#]	.
.	[4C#	.	2e	8eL	.
.	.	.	.	8f#J	.
.	4C#] 4B	.	.	8.g#L	.
.	.	.	.	16bJk	.
*	*	*	*v	*v	*
=128	=128	=128	=128	=128
4rEE	4rc	4rc	4b	.
2GG#	[2C#	2An	4an	.
.	.	.	[4e	.
=129	=129	=129	=129	=129
*	*	*	*^	*
2.FF#	4C#]	2.An\	4rc	4e]	.
.	[4BB#X	.	2d	8dnL	.
.	.	.	.	8eJ	.
.	4BB#] 4An	.	.	8.f#L	.
.	.	.	.	16anJk	.
*v	*v	*	*	*	*
*	*	*v	*v	*
=130	=130	=130	=130
4r	4rc	4an	.
2FF# 2D# 2F#	2G# 2B#X	4g#	.
.	.	4d#	.
*	*v	*v	*
=131	=131	=131
4EE 4E	4G# 4c# 4g#	.
[2AAn 2E	2Gn 2c# 2gn	.
=132	=132	=132
4DDn 4AA] 4Dn	4F# 4dn 4f#	.
2GGn 2D	2E#X 2B 2e#X	.
=133	=133	=133
*^	*^	*
[2.FF#	8.rc	2F#	8.f#L	.
.	16D#	.	16BJk	.
.	4F#	.	4d#	.
.	4F#	4rc	4E 4A# 4c#	.
*	*	*v	*v	*
=134	=134	=134	=134
4BBB 4FF#]	4rc	4D# 4B 4d#	.
2rEE	[2c-X	4r	.
.	.	4r	.
*v	*v	*	*
=135||	=135||	=135||
*k[b-e-a-d-g-c-]	*k[b-e-a-d-g-c-]	*
*^	*	*
4rEE	2.c-]	8r	.
.	.	8ee-	.
4A- 4f	.	12ee-L	.
.	.	12ff	.
.	.	12ee-J	.
4A-- 4f	.	8r	.
.	.	8cc-	.
=136	=136	=136	=136
4rEE	2.c-	8ee-L	.
.	.	16r	.
.	.	16b-Jk	.
4G- 4e-	.	4ee-	.
4F 4e-	.	4a-	.
=137	=137	=137	=137
4rEE	2.c-	8r	.
.	.	8cc-	.
4F 4dn	.	4.b-	.
4F 4d	.	.	.
.	.	8a-	.
=138	=138	=138	=138
4rEE	2.c-	8r	.
.	.	8cc-	.
4F-X 4dn	.	4.b-	.
4F- 4d	.	.	.
.	.	8a-	.
=139	=139	=139	=139
4rEE	2.c-	8r	.
.	.	8a-	.
4E- 4e-	.	12a-L	.
.	.	12b-	.
.	.	12a-J	.
4D- 4f-X	.	8r	.
.	.	8f-X	.
=140	=140	=140	=140
4rEE	2.c-	8a-L	.
.	.	16r	.
.	.	16f-XJk	.
4C- 4A-	.	4a-	.
4C- 4A-	.	4e-	.
=141	=141	=141	=141
*	*	*^	*
4rEE	2.c-	4rc	8raa	.
.	.	.	8cc-	.
4BB- 4Fn	.	4dn	4.b-	.
4BB- 4F	.	4d	.	.
.	.	.	8a-	.
*	*	*v	*v	*
*clefG2	*	*	*
=142	=142	=142	=142
4c- 4a- 4ddn	2.ryy	8r	.
.	.	8aa-	.
4r	.	4.gg-	.
4r	.	.	.
.	.	8ff	.
*v	*v	*	*
*clefF4	*	*
=143	=143	=143
*	*^	*
4EE-	4rc	8raa	.
.	.	8ff-X	.
4E- 4d- 4f-X	4gn	12ff-L	.
.	.	12gg-X	.
.	.	12ff-J	.
4E- 4d- 4f-	4g	8raa	.
.	.	8b-	.
*	*v	*v	*
=144	=144	=144
*^	*	*
4rEE	4AA-	8dd-L	.
.	.	16r	.
.	.	16b--Jk	.
2F-X 2f-X	4An	4dd-	.
.	4B-	4a-X	.
*v	*v	*	*
=145	=145	=145
*	*^	*
4EE-	2.g	8gnL	.
.	.	8ff-X	.
4E- 4d- 4f-X	.	8ee-	.
.	.	8ee--	.
4r	.	8dd-	.
.	.	8b-XJ	.
*	*v	*v	*
=146	=146	=146
*^	*	*
4rEE	4AA-	8cc-L	.
.	.	8dd-	.
2c-	4Dn 4f-X	8cc-	.
.	.	8b-	.
.	4E- 4e-	8a-	.
.	.	8e-J	.
*v	*v	*	*
=147	=147	=147
*	*^	*
4BBB-	4rc	8dnL	.
.	.	8cc-	.
2BB- 2A-	2d	8b-	.
.	.	8a-	.
.	.	8g-	.
.	.	8fnJ	.
*	*v	*v	*
=148	=148	=148
4C- 4G-	8e-L	.
.	8g-J	.
4An 4e-	8an	.
.	4ff	.
4r	.	.
.	8ee-	.
=149	=149	=149
4BB- 4G- 4e-	8ddnL	.
.	8dd-X	.
4G- 4e- 4g-	8ccn	.
.	8cc-X	.
4r	8b-	.
.	8g-J	.
=150	=150	=150
*	*^	*
[4BB-	4A- 4dn	8g-L	.
.	.	8fJ	.
2EE- 2BB-]	4rc	2G- 2e-	.
.	4rc	.	.
=151	=151	=151	=151
2GG-	4rc	8raa	.
.	.	8g-	.
.	4B-	12g-L	.
.	.	12a-	.
.	.	12g-J	.
4D-	4rc	8raa	.
.	.	8g-	.
=152	=152	=152	=152
4E--	4c-	8cc-L	.
.	.	16r	.
.	.	[16fJk	.
4.B-	4c-	4f] 4cc-	.
.	4rc	4f	.
8A-	.	.	.
*	*v	*v	*
=153	=153	=153
8r	4c- 4e- 4g-	.
8A-	.	.
12A-L	4c- 4e- 4a-	.
12B-	.	.
12A-J	.	.
8r	4c- 4e- 4b-	.
8G-	.	.
=154	=154	=154
8c-L	4c- 4e- 4b- 4dd-	.
16r	.	.
16FJk	.	.
4c-	4c- 4e- 4a- 4cc-	.
4r	4c- 4e- 4b-	.
=155	=155	=155
*^	*	*
8BB-L	2.ryy	4c- 4e- 4b-	.
8G-J	.	.	.
4F	.	4c- 4e- 4a-	.
4BB-	.	4c- 4dn 4b-	.
=156	=156	=156	=156
4.E-	2.ryy	4A- 4c- 4a-	.
.	.	4G- 4c- 4g-	.
8EE-	.	.	.
8DDnL	.	4G- 4c-	.
8EE-J	.	.	.
=157	=157	=157	=157
2FF-X	4rc	4E- 4A- 4e-	.
.	4rc	4D- 4A- 4d-X	.
4FFn	[4D-X	4A- 4c- 4d- 4a-	.
=158	=158	=158	=158
2.GG-	8D-L]	4A- 4d- 4a-	.
.	8E-J	.	.
.	[4F-X	4G- 4B- 4g-	.
.	4F-] 4G- 4d-	4f-X 4b- 4gg-	.
*v	*v	*	*
=159	=159	=159
*	*^	*
2C-	4rc	8raa	.
.	.	8cc-	.
.	4e-	12cc-L	.
.	.	12dd-	.
.	.	12cc-J	.
4G-	4rc	8raa	.
.	.	8cc-	.
=160	=160	=160	=160
4A--	4f-X	8ff-XL	.
.	.	16r	.
.	.	[16b-Jk	.
4.e-	4rc	4b-] 4ff-	.
.	4rc	4b-	.
8d-	.	.	.
*	*v	*v	*
=161	=161	=161
8r	4f-X 4a- 4cc-	.
8d-	.	.
12d-L	4f- 4a- 4dd-	.
12e-	.	.
12d-J	.	.
8r	4f- 4a- 4ee-	.
8c-	.	.
=162	=162	=162
8f-XL	4f-X 4a- 4ee- 4gg-	.
16r	.	.
16B-Jk	.	.
4f-	4f- 4a- 4dd- 4ff-X	.
4r	4f- 4a- 4cc- 4ee-	.
=163	=163	=163
8E-L	4f-X 4a- 4ee-	.
8c-J	.	.
8B-	4f- 4a- 4dd-	.
8r	.	.
8r	4f- 4gn 4ee-	.
8E-	.	.
=164	=164	=164
4.A-	4d- 4f-X 4dd-	.
.	4c- 4f- 4cc-	.
8A-	.	.
8B-L	4c- 4f- 4a-	.
8A-J	.	.
=165	=165	=165
*^	*^	*
8rEE	2.A-	4rc	4g-	.
8BB-	.	.	.	.
12BB-L	.	2c- 2dn	4g-	.
12C-	.	.	.	.
12BB-J	.	.	.	.
4rEE	.	.	4cc-	.
=166	=166	=166	=166	=166
8rEE	2.G-	2.c- 2.e-	4cc-	.
8BB-	.	.	.	.
12BB-L	.	.	8g-L	.
12C-	.	.	.	.
.	.	.	8a-J	.
12BB-J	.	.	.	.
4rEE	.	.	4b-	.
=167	=167	=167	=167	=167
8rEE	2.A-	2.c- 2.dn	4g-	.
8BB-	.	.	.	.
12BB-L	.	.	4en	.
12C-	.	.	.	.
12BB-J	.	.	.	.
4rEE	.	.	4f	.
=168	=168	=168	=168	=168
8rEE	2.G-	2.c- 2.e-X	4g-	.
8BB-	.	.	.	.
12BB-L	.	.	4cc-	.
12C-	.	.	.	.
12BB-J	.	.	.	.
4rEE	.	.	4b-	.
=169	=169	=169	=169	=169
4rEE	4BBB-	4rc	8raa	.
.	.	.	8a-	.
2BB-	4F	2c- 2dn	12a-L	.
.	.	.	12b-	.
.	.	.	12a-J	.
.	8G-L	.	8g-L	.
.	8A-J	.	8fJ	.
=170	=170	=170	=170	=170
2BB-	8.A-L	2c-	8.fL	.
.	16G-Jk	.	16e-Jk	.
.	4F	.	4dn	.
4rEE	4rc	4rc	4cc- 4ccc-	.
=171	=171	=171	=171	=171
4rEE	4BBB-	4rc	8raa	.
.	.	.	8a-	.
2BB-	4F	2c- 2dn	12a-L	.
.	.	.	12b-	.
.	.	.	12a-J	.
.	8G-L	.	8g-L	.
.	8A-J	.	8fJ	.
*	*	*v	*v	*
=172	=172	=172	=172
2BB-	8.A-L	8.fL	.
.	16G-Jk	16e-Jk	.
.	4F	4dn	.
4rEE	4rc	4cc- 4ccc-	.
=173	=173	=173	=173
*	*	*^	*
4rEE	4BBB-	4rc	8raa	.
.	.	.	8dd-	.
2BB- 2F-X	4B-	2f-X 2gn	12dd-L	.
.	.	.	12ee-	.
.	.	.	12dd-J	.
.	8c-L	.	8cc-L	.
.	8d-J	.	8b-J	.
=174	=174	=174	=174	=174
2BB- 2F-X	8.d-L	2f-X	8.b-L	.
.	16c-Jk	.	16a-Jk	.
.	4B-	.	4gn	.
4rEE	4BBBB- 4BBB-	4rc	4raa	.
*v	*v	*	*	*
=175	=175	=175	=175
4En 4c- 4en	4aa-	8ff-XL 8fff-X	.
.	.	8ee-J 8eee-	.
4Fn 4c- 4fn	4aa-	4ddn 4dddn	.
4BBBB- 4BBB-	4rc	4raa	.
=176	=176	=176	=176
4En 4c-	4a-	8f-XL 8ff-X	.
.	.	8e-J 8ee-	.
4F 4c-	4a-	4dn 4ddn	.
4BBBB- 4BBB-	4rc	4raa	.
=177	=177	=177	=177
4EEn 4C-	4A-	8F-XL 8f-X	.
.	.	8E-J 8e-	.
4FF 4C-	4A-	4Dn 4dn	.
4BBBB- 4BBB-	4rc	4raa	.
*	*v	*v	*
=178	=178	=178
2.c-	2.r	.
=179	=179	=179
2.c-	2.r	.
=180	=180	=180
2.c-	2.r	.
=181	=181	=181
*^	*	*
4rEE	2.c-	8r	.
.	.	8ee-	.
4A- 4f	.	12ee-L	.
.	.	12ff	.
.	.	12ee-J	.
4A-- 4f	.	8r	.
.	.	8cc-	.
=182	=182	=182	=182
4rEE	2.c-	8ee-L	.
.	.	16r	.
.	.	16b-Jk	.
4G- 4e-	.	4ee-	.
4F 4e-	.	4a-	.
=183	=183	=183	=183
4rEE	2.c-	8r	.
.	.	8cc-	.
4F 4dn	.	4.b-	.
4F 4d	.	.	.
.	.	8a-	.
=184	=184	=184	=184
4rEE	2.c-	8r	.
.	.	8cc-	.
4F-X 4dn	.	4.b-	.
4F- 4d	.	.	.
.	.	8a-	.
=185	=185	=185	=185
4rEE	2.c-	8r	.
.	.	8a-	.
4E- 4e-	.	12a-L	.
.	.	12b-	.
.	.	12a-J	.
4D- 4f-X	.	8r	.
.	.	8f-X	.
=186	=186	=186	=186
4rEE	2.c-	8a-L	.
.	.	16r	.
.	.	16f-XJk	.
4C- 4A-	.	4a-	.
4C- 4A-	.	4e-	.
=187	=187	=187	=187
4rEE	2.c-	8r	.
.	.	8cc-	.
4D- 4fn	.	4.b-	.
4D- 4f	.	.	.
.	.	8a-	.
*clefG2	*	*	*
=188	=188	=188	=188
4d- 4cc- 4ff	2.ryy	8r	.
.	.	8ccc-	.
4r	.	4.bb-	.
4r	.	.	.
.	.	8aa-	.
*v	*v	*	*
*clefF4	*	*
=189	=189	=189
*	*^	*
4GG-	4rc	8raa	.
.	.	8aa--	.
4G- 4f-X 4a--	4b-	12aa--L	.
.	.	12bb--	.
.	.	12aa--J	.
4G- 4f- 4a--	4b-	8raa	.
.	.	8dd-	.
*	*v	*v	*
=190	=190	=190
*^	*	*
4rEE	4C-	8.ff-XL	.
.	.	16dd--Jk	.
2A-- 2a--	4cn	4ff-	.
.	4d-	4cc-X	.
*v	*v	*	*
=191	=191	=191
*	*^	*
4GG-	4b-	8b-L	.
.	.	8aa--	.
4G- 4f-X 4a--	4b-	8gg-	.
.	.	8gg--	.
4r	4rc	8ff-X	.
.	.	8dd-XJ	.
*	*v	*v	*
=192	=192	=192
*^	*	*
4C-	4rc	8ee-L	.
.	.	8dd-	.
[4G-	[4e-	8cc-	.
.	.	8b-	.
8G-L]	4A-X 4e-]	8a-X	.
8FnJ	.	8e-J	.
*v	*v	*	*
=193	=193	=193
*	*^	*
4BBB-	4rc	8dnL	.
.	.	8cc-	.
2BB- 2A-	2d	8b-	.
.	.	8a-	.
.	.	8g-	.
.	.	8fJ	.
*	*v	*v	*
=194	=194	=194
4C- 4G-	8e-L	.
.	8g-J	.
4An 4e-	8an	.
.	4ff	.
4r	.	.
.	8ee-	.
=195	=195	=195
4BB- 4G- 4e-	8ddnL	.
.	8dd-X	.
4G- 4e- 4g-	8ccn	.
.	8cc-X	.
4r	8b-	.
.	8g-J	.
=196	=196	=196
*	*^	*
4BBB- 4BB-	2.A- 2.dn	8g-L	.
.	.	8f	.
4r	.	8cc-	.
.	.	8b-	.
4r	.	8gg-	.
.	.	8ffJ	.
=197	=197	=197	=197
*^	*	*	*
4EE-	8rc	8ff-L	4ff-X	.
.	8A-	8f-X	.	.
4BB-	12A-L	8ee-	4ee-	.
.	12B-	.	.	.
.	.	8a-	.	.
.	12A-J	.	.	.
4EE-	8rc	8ee--	4ee--	.
.	8A-	8f-J	.	.
=198	=198	=198	=198	=198
2C-	8.f-XL	8dd-L	4dd-	.
.	.	8a-	.	.
.	16A-Jk	.	.	.
.	4f-	8cc-	4cc-	.
.	.	[8f-XJ	.	.
4EE-	4rc	4f-]	4b-	.
=199	=199	=199	=199	=199
2Cn	8rc	8b--L	4b--	.
.	8G-	8B--	.	.
.	12G-L	8a-	4a-	.
.	12A-	.	.	.
.	.	8e-	.	.
.	12G-J	.	.	.
4EE-	8rc	8a--	4a--	.
.	8G-	8B--J	.	.
=200	=200	=200	=200	=200
2D-	8B--L	8g-L	4g-	.
.	16r	8d-	.	.
.	16F-XJk	.	.	.
.	4B--	8f-	4f-X	.
.	.	8B--J	.	.
4EE-	4rc	4d-	4d-	.
=201	=201	=201	=201	=201
2.EE-	2.BB- 2.F-X	8B--L	4.d-	.
.	.	8A-J	.	.
.	.	2Gn	.	.
.	.	.	8f-X	.
.	.	.	8e-L	.
.	.	.	8d-J	.
*v	*v	*	*	*
=202	=202	=202	=202
4AA- 4E-	4A-	8c-L	.
.	.	8d-J	.
2AAn 2G-	2c-	8e-	.
.	.	4dd-	.
.	.	8cc-	.
=203	=203	=203	=203
4BB- 4G-	4e-	8cc-L	.
.	.	8b-	.
4.BB- 4.c-	4.A- 4.dn	8g-	.
.	.	8f	.
.	.	8f-X	.
8EE- 8C-	8G-	8e-J	.
*	*v	*v	*
=204	=204	=204
*^	*	*
2.EE-	8C-L	4G- 4e-	.
.	8BB-	.	.
.	8D-	4Fn 4e- 4fn	.
.	8AA-	.	.
.	8C-	4G- 4e- 4g-	.
.	8BB-J	.	.
=205	=205	=205	=205
*	*	*^	*
4EE-	8rc	8ff-L	4ff-X	.
.	8A-	8f-X	.	.
4BB-	12A-L	8ee-	4ee-	.
.	12B-	.	.	.
.	.	8a-	.	.
.	12A-J	.	.	.
4EE-	8rc	8ee--	4ee--	.
.	8A-	8f-J	.	.
=206	=206	=206	=206	=206
2C-	8.f-XL	8dd-L	4dd-	.
.	.	8a-	.	.
.	16A-Jk	.	.	.
.	4f-	8cc-	4cc-	.
.	.	[8f-XJ	.	.
4EE-	4rc	4f-]	4b-	.
=207	=207	=207	=207	=207
2Cn	8rc	8b--L	4b--	.
.	8G-	8B--	.	.
.	12G-L	8a-	4a-	.
.	12A-	.	.	.
.	.	8e-	.	.
.	12G-J	.	.	.
4EE-	8rc	8a--	4a--	.
.	8G-	8B--J	.	.
=208	=208	=208	=208	=208
2D-	8B--L	8g-L	4g-	.
.	16r	8d-	.	.
.	16F-XJk	.	.	.
.	4B--	8f-	4f-X	.
.	.	8B--J	.	.
4EE-	4rc	4d-	4d-	.
=209	=209	=209	=209	=209
2.EE-	2.BB- 2.F-X	8B--L	4.d-	.
.	.	8A-J	.	.
.	.	2Gn	.	.
.	.	.	8f-X	.
.	.	.	8e-L	.
.	.	.	8d-J	.
*v	*v	*	*	*
=210	=210	=210	=210
4AA- 4E-	4A-	8c-L	.
.	.	8d-J	.
2AAn 2G-	2c-	8e-	.
.	.	4dd-	.
.	.	8cc-	.
=211	=211	=211	=211
4BB- 4G-	4e-	8cc-L	.
.	.	8b-	.
4.BB- 4.c-	4.A- 4.dn	8g-	.
.	.	8f	.
.	.	8f-X	.
8EE- 8C-	8G-	8e-J	.
*	*v	*v	*
=212	=212	=212
*^	*	*
2.EE-	8C-L	4G- 4e-	.
.	8BB-	.	.
.	8D-	4Fn 4e- 4fn	.
.	8AA-	.	.
.	8C-	4G- 4e- 4g-	.
.	8BB-J	.	.
*v	*v	*	*
=213	=213	=213
4EE- 4BB-	4G- 4e- 4g-	.
2CC- 2C-	2A- 2e- 2f 2a-	.
=214	=214	=214
*^	*	*
2.EE-	8C-L	4G- 4e-	.
.	8BB-	.	.
.	8D-	4F 4e- 4f	.
.	8AA-	.	.
.	8C-	4G- 4e- 4g-	.
.	8BB-J	.	.
*v	*v	*	*
=215	=215	=215
4EE- 4BB-	4G- 4e- 4g-	.
2CC- 2C-	2A- 2e- 2f 2a-	.
=216	=216	=216
4EE- 4BB-	4G- 4e- 4g-	.
2CC- 2C-	2A- 2e- 2f 2a-	.
=217	=217	=217
4EE- 4BB-	4B- 4e- 4g- 4b-	.
2AAn 2G- 2e-	2c- 2g- 2cc-	.
=218	=218	=218
*^	*^	*
*	*^	*	*^	*
*	*	*^	*	*	*	*
[2.EEE-/ [2.EE-	8r	4.rEE	8EEE-L 8EE-	4r	4rc	[2.c- [2.g- [2.ee-	.
.	[8C-/	.	8C-	.	.	.	.
.	2C-/_	.	8c-	4r	4rc	.	.
.	.	[4.G-	8G-J	.	.	.	.
.	.	.	8rc	8e-/L	[4e-	.	.
.	.	.	8rc	[8cc-/J	.	.	.
=219	=219	=219	=219	=219	=219	=219	=219
*	*	*	*	*	*	*^	*
2.EEE-/] 2.EE-]	2.C-/]	2.G-]	2.ryy	4ee-\	2.cc-\]	2.e-]	2.c-] 2.g-] 2.ee-]	.
.	.	.	.	4r	.	.	.	.
.	.	.	.	4r	.	.	.	.
*	*	*v	*v	*	*	*	*	*
*	*v	*v	*	*	*	*	*
*v	*v	*	*	*	*	*
*	*	*	*v	*v	*
*	*	*v	*v	*
*	*v	*v	*
=220	=220	=220
2.c-	2.r	.
=221	=221	=221
2.c-	2.r	.
=222	=222	=222
2.c-	2.r	.
==	==	==
*-	*-	*-
!!!system-decoration: {(*)}
!!!ENC: Bryan Jacob Bell
!!!END: November 2021 to April 2022
!!!PED: Günter Philipp
!!!PTL: Ausgewählte Klavierwerke (Edition Peters)
